X:1
T:Carol of the Bells
T:Carol of the Bells
T:Mykola Leontovych Arr: Scott Simon 
T: 
C:Arr: Scott Simon
%%score { 1 | 2 }
L:1/8
Q:1/4=180
M:3/4
K:Bb
V:1 treble nm="Piano" snm="Pno."
V:2 treble 
V:1
!ppp! B2 AB G2 | B2 AB G2 | B2 AB G2 | B2 AB G2 | B2 AB G2 | B2 AB G2 | B2 AB G2 | B2 AB G2 | %8
 B2 AB G2 | B2 AB G2 | B2 AB G2 | B2 AB G2 |!<(! B2 AB G2 | B2 AB G2 | B2 AB G2 | B2 AB G2 | %16
 [Bd]2 cd B2 | [Bd]2 cd B2 | [Bd]2 cd B2 | [Bd]2 cd B2!<)! |!pp!!8va(! g'2 g'g' f'e' | %21
 d'2 d'd' c'b | c'2 c'c' d'c' | b2 ab g2!8va)! | z!<(! =e ^fg ab | c'!<)!!>(!d' c'2!pp! b2!>)! | %26
 z!<(! =e ^fg ab | c'!<)!!>(!d' c'2!pp! b2!>)! | [gb]2 ab g2 | [gb]2 ab g2 | [gb]2 ab g2 | %31
 [gb]2 ab g2 | [Bb]2 AB G2 | B2 AB G2 | B2 AB G2 | B2 AB G2 | B2 AB G2 | B2 AB G2 | B2 AB G2 | %39
 B2 AB G2 |!<(! B2 AB G2 | B2 AB G2 | B2 AB G2 | [GB]2 AB G2!<)! |!mp! [GB]2 AB G2 | [GB]2 AB G2 | %46
 [GB]2 AB G2 | [GB]2 AB G2 | [GBd]2 cd B2 | [Bd]2 cd B2 | [Bd]2 cd B2 | [Bd]2 cd B2 | %52
 [Bdg]2!pp! gg fe | d2 dd cB | c2 cc dc |!<(! B2 AB G2!<)! |!mp! D=E ^FG AB | cd c2 B2 | %58
 D=E ^FG AB | cd c2 B2 | [GB]2 AB G2 | [GB]2 AB G2 | [GB]2 AB G2 | [GB]2 AB G2 | %64
[K:bass] [B,B]2!p! A,B, G,2 | B,2 A,B, G,2 | [B,DG]2 CD B,2 | D2 CD B,2 | [G,B,]2 A,B, G,2 | %69
 B,2 A,B, G,2 | [D,G,B,]6 | [D,^F,A,]6 | [G,B,]2 A,B, G,2 | [G,B,]2 A,B, G,2 | [G,B,]2 A,B, G,2 | %75
 [G,B,]2 A,B, G,2 | [G,B,]2 A,B, G,2 | [G,B,]2 A,B, G,2 | [G,B,]2 A,B, G,2 | [G,B,]2 A,B, G,2 | %80
!mp! [G,B,D]2 CD B,2 | [G,B,D]2 CD B,2 | [G,B,D]2 CD B,2 | [G,B,D]2 CD B,2 |!<(! [G,B,D]2 CD B,2 | %85
 [G,B,D]2 CD B,2 | [G,B,D]2 CD B,2 | [G,B,D]2 CD B,2!<)! |[K:treble]!f! [B,DG]6 | [B,DF]6 | %90
 [C=E]6 | [B,DG]6 | [D^FAd]6- | [DFAd]4 [GB]2 | [D^FAd]6- | [DFAd]4 [GB]2 | [D^FAd]6- | %97
 [DFAd]4 [GB]2 | [D^FAd]6 |!<(! z2 =E^F GA!<)! |!ff! [GB]2 AB G2 | [GB]2 AB G2 | [GB]2 AB G2 | %103
 [GB]2 AB G2 | [GB]2 AB G2 | [GB]2 AB G2 | [GB]2 AB G2 | [GB]2 AB G2 | [Bb]2 [Aa][Bb] [Gg]2 | %109
 [Bb]2 [Aa][Bb] [Gg]2 | [Bb]2 [Aa][Bb] [Gg]2 | [Bb]2 [Aa][Bb] [Gg]2 | [Bdb]2 cd B2 | [Bdb]2 cd B2 | %114
 [Bdb]2 cd B2 | [Bdb]2 cd!>(! B2!>)! |!p! !>![Bdg]2 gg fe | d2 dd cB | [Gc]2 cc dc | %119
!<(! [GB]2 AB G2!<)! |[K:bass]!f! D,=E, ^F,G, A,B, | CD C2 B,2 | D,=E, ^F,G, A,B, | CD C2 B,2 | %124
[K:treble]!<(! [D,D][=E,=E] [^F,^F][G,G] [A,A][B,B] | [C^Fc][Dd] [Cc]2 [B,DB]2 | %126
 [Dd][=E=e] [^F^f][Gg] [Aa][Bb] | [c^fc'][dd'] [cc'][dd'] [cc'][dd']!<)! |!ff! [GBd]2 AB G2 | %129
 [GBd]2 AB G2 | [GBd]2 AB G2 | [GBd]2 AB G2 | [Bdg]2 cd B2 | [Bdg]2 cd B2 | [Bdg]2 cd B2 | %135
 [Bdg]2 cd B2 |!8va(! [gg']2 [gg'][gg'] [ff'][ee'] | [ff']2 [ff'][ff'] [ee'][dd'] | %138
 [ee']2 [ee'][ee'] [dd'][cc'] | [dd']2 [cc']2 [Bb]2!8va)! | [Gg]2 [Gg][Gg] [Ff][Ee] | %141
 [Ff]2 [Ff][Ff] [Ee][Dd] | [Ee]2 [Ee][Ee] [Dd][Cc] |!>(! [Dd]2 [Cc]2 [B,B]2!>)! | %144
!mf!!<(! G,G, G,A, B,C | B,B, B,B, CD | CC CC DE | D2 ^F2 A2!<)! |!<(! GG GA Bc | BB BB cd | %150
 cc cc dc | B2 A2 ^F2!<)! |!ff! [GBd]2!p! AB G2 | B2 AB G2 | [Bdg]2 cd B2 | d2 cd B2 | %156
!8va(! [gbd'g']2!p!!>(! ab gg' | bg' ab gg' | bg' ab gg' | bg' ab gg'!>)! |!ppp! bg' ab gg' | %161
 bg' ab gg' | bg' ab[Q:1/4=140] gg' | %163
"_Molto rit."[Q:1/4=90] [bd']g'[Q:1/4=60] [ac'][Q:1/4=40][bd'] !arpeggio![gbd'g']2- | %164
 [gbd'g']6!8va)! |] %165
V:2
!ped! z6 | z6 | z6 | z6!ped-up! |!ped! g6!ped-up! |!ped! f6!ped-up! |!ped! e6!ped-up! | %7
!ped! d6!ped-up! |!ped! [eg]6!ped-up! |!ped! [df]6!ped-up! |!ped! [ce]6!ped-up! | %11
!ped! [dg]6!ped-up! |!ped! [cg]6!ped-up! |!ped! [da]6!ped-up! |!ped! [eb]6!ped-up! | %15
!ped! [fc']6!ped-up! |!ped! [gd']6!ped-up! |!ped! [g=e']6!ped-up! |!ped! [ge']6!ped-up! | %19
!ped! [gd']6!ped-up! |!ped! [Gd]6!ped-up! |!ped! [Bf]6!ped-up! |!ped! [cg]6!ped-up! | %23
!ped! [Gd]6!ped-up! | d2 c2 B2 | A4 G2 | d2 c2 B2 | A4 G2 |!ped! [EB]6!ped-up! | %29
!ped! [Fc]6!ped-up! |!ped! [EB]6!ped-up! |!ped! [CG]6!ped-up! |[K:bass]!ped! G,6-!ped-up! | G,6- | %34
 [G,,G,]6- | [G,,G,]6 |!ped! G6!ped-up! |!ped! F6!ped-up! |!ped! E6!ped-up! |!ped! D6!ped-up! | %40
!ped! [EG]6!ped-up! |!ped! [DF]6!ped-up! |!ped! [CE]6!ped-up! |!ped! [G,D]6!ped-up! | %44
!ped! [C,G,]6!ped-up! |!ped! [D,A,]6!ped-up! |!ped! [E,B,]6!ped-up! |!ped! [F,C]6!ped-up! | %48
!ped! [G,D]4 A,B,!ped-up! |!ped! [G,=E]4 A,B,!ped-up! |!ped! [G,E]4 A,B,!ped-up! | %51
!ped! [G,C]4 A,B,!ped-up! |!ped! [G,D]6!ped-up! |!ped! [B,F]6!ped-up! |!ped! [CG]6!ped-up! | %55
!ped! [G,D]6!ped-up! | D,2 C,2 B,,2 | [A,,^F,]4 [G,,G,]2 | D,2 C,2 B,,2 | [A,,^F,]4 [G,,G,]2 | %60
!ped! [E,B,]4- [E,B,][E,B,]!ped-up! |!ped! [F,C]4- [F,C][F,C]!ped-up! | %62
!ped! [E,B,]4- [E,B,][E,B,]!ped-up! |!ped! [C,G,]4- [C,G,][C,G,]!ped-up! |!ped! [G,,D,]6-!ped-up! | %65
 [G,,D,]6 |!ped! z6!ped-up! | z4 [B,,,B,,]2 |!ped! [G,,,G,,]6-!ped-up! | [G,,,G,,]6 | z6 | %71
 z2 [D,,,D,,]2 [F,,,F,,]2 | [G,,,G,,]2 z4 | G,,2 z4 | G,,2 z4 | !^!G,,2 !^!C,2 B,,2 | G,,2 z4 | %77
 G,,2 z4 | G,,2 z4 | !^!G,,2 !^!D,,2 F,,2 | [G,,,G,,]2 z4 | [G,,,G,,]2 z4 | [G,,,G,,]2 z4 | %83
 !^![G,,,G,,]2 !^![C,,C,]2 [B,,,B,,]2 | [G,,,G,,]2 z4 | [G,,,G,,]2 z4 | [G,,,G,,]2 z4 | %87
 [G,,,G,,]2 [B,,,B,,]2 [D,,D,]2 |!ped! [G,,G,]2 [G,,G,][G,,G,] [F,,F,][E,,E,]!ped-up! | %89
!ped! [D,,D,]2 [D,,D,][D,,D,] [C,,C,][B,,,B,,]!ped-up! | %90
!ped! [C,,C,]2 [C,,C,][C,,C,] [D,,D,][C,,C,]!ped-up! | %91
!ped! [G,,G,]2 [G,,G,][G,,G,] [G,,G,]2!ped-up! | %92
!ped! [D,,D,][=E,,=E,] [^F,,^F,][G,,G,] [A,,A,][B,,B,]!ped-up! | [C,C][D,D] [C,C]2 [B,,B,]2 | %94
!ped! [D,,D,][=E,,=E,] [^F,,^F,][G,,G,] [A,,A,][B,,B,]!ped-up! | [C,C][D,D] [C,C]2 [B,,B,]2 | %96
!ped! [D,,D,][=E,,=E,] [^F,,^F,][G,,G,] [A,,A,][B,,B,]!ped-up! | [C,C][D,D] [C,C]2 [B,,B,]2 | %98
!ped! [D,,D,][=E,,=E,] [^F,,^F,][G,,G,] [A,,A,][B,,B,]!ped-up! | %99
 [C,C][D,D] [C,C][B,,B,] [A,,A,][^F,,^F,] |!ped! [G,,D,G,]6!ped-up! |!ped! [F,,C,F,]6!ped-up! | %102
!ped! [E,,B,,E,]6!ped-up! |!ped! [D,,A,,D,]6!ped-up! |!ped! [G,,B,,E,G,]6!ped-up! | %105
!ped! [F,,A,,D,F,]6!ped-up! |!ped! [E,,G,,C,E,]6!ped-up! |!ped! [D,,G,,B,,D,]6!ped-up! | %108
!ped! [C,,G,,C,]6!ped-up! |!ped! [D,,A,,D,]6!ped-up! |!ped! [E,,B,,E,]6!ped-up! | %111
!ped! [F,,C,F,]6!ped-up! |!ped! [G,,D,G,]4 A,,B,,!ped-up! |!ped! [G,,=E,G,]4 A,,B,,!ped-up! | %114
!ped! [G,,E,G,]4 A,,B,,!ped-up! |!ped! [G,,B,,G,]4 A,,B,,!ped-up! | %116
!ped! G,,-[G,,D,]- [G,,D,G,]4!ped-up! |!ped! B,,-[B,,F,]- [B,,F,B,]4!ped-up! | %118
!ped! C,-[C,G,]- [C,G,C]4!ped-up! |!ped! G,,D, G,B, G,D,!ped-up! | [D,,D,]2 [C,,C,]2 [B,,,B,,]2 | %121
 [^F,,^F,]4 [G,,G,]2 | [D,,D,]2 [C,,C,]2 [B,,,B,,]2 | [^F,,^F,]4 [G,,G,]2 | %124
 [D,,D,]2 [C,,C,]2 [B,,,B,,]2 | [^F,,^F,]4 [G,,G,]2 | [D,,D,]2 [C,,C,]2 [B,,,B,,]2 | %127
 [^F,,^F,]4 [D,,D,]2 |!ped! [G,,D,G,]6!ped-up! |!ped! [F,,C,F,]6!ped-up! | %130
!ped! [E,,B,,E,]6!ped-up! |!ped! [D,,A,,D,]4 [F,,C,F,]2!ped-up! |!ped! [G,,D,G,]6!ped-up! | %133
!ped! [F,,C,F,]6!ped-up! |!ped! [E,,B,,E,]6!ped-up! |!ped! [D,,A,,D,]4 [F,,C,F,]2!ped-up! | %136
!ped! [G,,D,G,]6!ped-up! |!ped! [F,,C,F,]6!ped-up! |!ped! [E,,B,,E,]6!ped-up! | %139
!ped! [D,,A,,D,]4 [F,,C,F,]2!ped-up! |!ped! [G,,D,G,]6!ped-up! |!ped! [F,,C,F,]6!ped-up! | %142
!ped! [E,,B,,E,]6!ped-up! |!ped! [D,,A,,D,]4 [B,,,B,,]2!ped-up! |!ped! [G,,,D,,G,,]6!ped-up! | %145
!ped! [B,,,F,,B,,]6!ped-up! |!ped! [C,,G,,C,]6!ped-up! |!ped! [D,,A,,D,]4 [^F,,D,^F,]2!ped-up! | %148
!ped! [G,,D,G,]6!ped-up! |!ped! [B,,F,B,]6!ped-up! |!ped! [C,G,C]6!ped-up! | %151
!ped! [D,A,D]4 [^F,,D,^F,]2!ped-up! |!ped! [G,,D,G,]6!ped-up! | z6 |!ped! [DG]6!ped-up! | %155
 z4 [B,,,B,,]2 |!ped! [G,,,G,,]6!ped-up! | z6 | z6 | z6 | z6 | z6 | z6 | z6 | z6 |] %165

